img/banner-flower-1.svg

<svg width="192" height="195" viewBox="0 0 192 195" fill="none" xmlns="http://www.w3.org/2000/svg">
<path d="M112.637 40.3691L107.106 40.5215L104.579 41.1238L101.018 42.8198L96.382 47.2084L93.2407 52.0883L91.0632 58.5395L90.2417 70.8118L88.3554 66.0705L84.5134 59.2527L81.0911 55.6189L76.1605 52.0266L71.6772 50.5525L64.1357 50.7604L61.0914 51.9095L55.9805 55.246L52.853 59.593L50.7033 64.9782L50.5647 70.308L51.0121 72.426L53.3873 77.6865L56.7957 81.8533L62.7042 86.4837L69.6459 90.0205L64.6321 89.6261L55.5823 89.8757L47.4826 92.2294L41.8551 96.1127L38.7276 100.46L37.1084 104.765L36.9282 111.694L37.8506 114.864L40.7424 119.578L44.6814 122.665L50.1564 124.644L58.7034 124.408L65.7976 122.082L73.4499 117.611L76.0192 115.409L69.7781 123.57L66.609 129.516L64.9344 135.954L64.8096 140.75L66.1793 146.039L68.5961 149.7L72.5351 152.787L76.7813 154.694L86.7859 154.418L91.1374 152.274L95.2566 148.432L98.4118 143.019L100.603 136.035L100.728 131.239L101.733 131.211L104.722 132.194L106.161 134.817L110.059 139.503L114.989 143.095L120.464 145.074L126.497 144.908L128.522 144.32L134.122 141.502L138.786 136.048L140.949 130.13L141.074 125.333L140.613 123.748L138.74 118.473L134.843 113.788L129.926 109.662L122.495 105.606L127.509 106.001L135.554 105.779L141.112 104.561L144.673 102.865L148.764 100.089L152.394 95.728L154.53 90.8757L154.696 84.48L153.788 80.7769L151.385 76.5824L146.957 72.9763L141.985 70.983L132.432 71.2464L128.383 72.4232L121.261 75.8152L115.633 79.6985L119.78 74.7908L123.452 68.831L126.132 62.366L126.815 55.4234L125.459 49.6022L123.042 45.9407L118.615 42.3346L112.637 40.3691Z" fill="white"/>
<path d="M91.9755 81.4159L99.517 81.208L104.992 83.1874L109.42 86.7935L111.823 90.988L112.731 94.6911L112.593 100.021L110.96 104.859L107.832 109.206L102.205 113.09L98.1548 114.266L92.6244 114.419L87.6383 112.959L83.6993 109.872L80.7798 106.224L78.9073 100.95L79.0598 95.0869L81.74 88.6218L85.3564 84.794L90.4533 81.9905L91.9755 81.4159Z" fill="#EFB74A"/>
</svg>

<svg width="192" height="195" fill="none" xmlns="http://www.w3.org/2000/svg"><path d="M112.637 40.37l-5.531.152-2.527.602-3.561 1.696-4.636 4.388-3.141 4.88-2.178 6.451-.821 12.273-1.887-4.742-3.842-6.817-3.422-3.634-4.93-3.592-4.484-1.474-7.541.207-3.045 1.15-5.11 3.336-3.128 4.347-2.15 5.385-.138 5.33.447 2.118 2.375 5.26 3.409 4.167 5.908 4.63 6.942 3.537-5.014-.394-9.05.25-8.1 2.353-5.627 3.884-3.127 4.347-1.62 4.305-.18 6.929.923 3.17 2.891 4.714 3.94 3.087 5.474 1.979 8.547-.236 7.095-2.326 7.652-4.471 2.57-2.202-6.242 8.161-3.169 5.946-1.675 6.438-.124 4.796 1.37 5.289 2.416 3.661 3.94 3.087 4.245 1.907 10.005-.276 4.351-2.144 4.12-3.842 3.155-5.413 2.191-6.984.125-4.796 1.005-.028 2.989.983 1.439 2.623 3.898 4.686 4.93 3.592 5.475 1.979 6.033-.166 2.025-.588 5.6-2.818 4.664-5.454 2.163-5.918.125-4.797-.461-1.585-1.873-5.275-3.897-4.685-4.917-4.126-7.431-4.056 5.014.395 8.045-.222 5.558-1.218 3.561-1.696 4.091-2.776 3.63-4.361 2.136-4.852.166-6.396-.908-3.703-2.403-4.195-4.428-3.606-4.972-1.993-9.553.263-4.049 1.177-7.122 3.392-5.628 3.883 4.147-4.907 3.672-5.96 2.68-6.465.683-6.943-1.356-5.82-2.417-3.662-4.427-3.606-5.978-1.966z" fill="#fff"/><path d="M91.975 81.416l7.542-.208 5.475 1.98 4.428 3.605 2.403 4.195.908 3.703-.138 5.33-1.633 4.838-3.128 4.347-5.627 3.884-4.05 1.176-5.53.153-4.987-1.46-3.939-3.087-2.92-3.648-1.872-5.274.153-5.863 2.68-6.465 3.616-3.828 5.097-2.803 1.522-.575z" fill="#EFB74A"/></svg>
